X:7886
T:Alter N\"urnberger Dreher
C:anon.
O:Germany
A:N\"urnberg
N:19th Century
Z:Transcribed by Frank Nordberg - http://www.musicaviva.com
F:http://abc.musicaviva.com/tunes/germany/nurnberger-dreher.abc
M:2/4
L:1/8
K:D
(FE) (FE)|(FG) A2|(EF) (GE)|(FG) A2|
(FE) (FE)|(FG) A2|(EF) (GE)|D4|
(EF) (GE)|(FG) A2|(EF) (GE)|(FG) A2|
(FE) (FE)|(FG) A2|(EF) (GE)|D4|]
W:
W:
W:  From Musica Viva - http://www.musicaviva.com
W:  the Internet center for free sheet music downloads.
